icons/mobile/24/svg/tab-group-24.svg

<svg width="24" height="24" viewBox="0 0 24 24" fill="none" xmlns="http://www.w3.org/2000/svg">
<path fill-rule="evenodd" clip-rule="evenodd" d="M7 12.75C7.65474 12.75 8.25463 12.8092 8.78809 12.8984C10.0544 13.1092 11 14.1926 11 15.4932V18.0078C11 19.2596 10.109 20.3761 8.84277 20.5928C8.12204 20.7154 7.49205 20.749 7 20.749C6.34487 20.749 5.74463 20.6899 5.21094 20.6006C3.94478 20.3897 3 19.3063 3 18.0059V15.4912C3 14.2395 3.89103 13.123 5.15723 12.9062C5.87796 12.7836 6.50795 12.75 7 12.75ZM7 14.5C6.69096 14.5 6.31602 14.5158 5.8916 14.5674L5.45215 14.6318C5.05865 14.6994 4.75 15.0592 4.75 15.4912V18.0059C4.75 18.4333 5.05932 18.8018 5.49902 18.875L5.84473 18.9258C6.20043 18.9712 6.58694 18.999 7 18.999C7.41188 18.999 7.94072 18.9705 8.54785 18.8672L8.69043 18.8291C9.01343 18.7092 9.25 18.3861 9.25 18.0078V15.4932C9.25 15.1193 9.01363 14.7905 8.66016 14.665L8.50098 14.624C8.05474 14.5493 7.55076 14.5 7 14.5Z" fill="black"/>
<path fill-rule="evenodd" clip-rule="evenodd" d="M16.75 12.75C17.4047 12.75 18.0046 12.8092 18.5381 12.8984C19.8044 13.1092 20.75 14.1926 20.75 15.4932V18.0078C20.75 19.2596 19.859 20.3761 18.5928 20.5928C17.872 20.7154 17.242 20.749 16.75 20.749C16.0949 20.749 15.4946 20.6899 14.9609 20.6006C13.6948 20.3897 12.75 19.3063 12.75 18.0059V15.4912C12.75 14.2395 13.641 13.123 14.9072 12.9062C15.628 12.7836 16.258 12.75 16.75 12.75ZM16.75 14.5C16.441 14.5 16.066 14.5158 15.6416 14.5674L15.2021 14.6318C14.8087 14.6994 14.5 15.0592 14.5 15.4912V18.0059C14.5 18.4333 14.8093 18.8018 15.249 18.875L15.5947 18.9258C15.9504 18.9712 16.3369 18.999 16.75 18.999C17.1619 18.999 17.6907 18.9705 18.2979 18.8672L18.4404 18.8291C18.7634 18.7092 19 18.3861 19 18.0078V15.4932C19 15.1193 18.7636 14.7905 18.4102 14.665L18.251 14.624C17.8047 14.5493 17.3008 14.5 16.75 14.5Z" fill="black"/>
<path fill-rule="evenodd" clip-rule="evenodd" d="M7 3C7.65474 3 8.25463 3.05923 8.78809 3.14844C10.0544 3.35924 11 4.44262 11 5.74316V8.25781C11 9.50955 10.109 10.6261 8.84277 10.8428C8.12204 10.9654 7.49205 10.999 7 10.999C6.34487 10.999 5.74463 10.9399 5.21094 10.8506C3.94478 10.6397 3 9.5563 3 8.25586V5.74121C3 4.48947 3.89103 3.37296 5.15723 3.15625C5.87796 3.0336 6.50795 3 7 3ZM7 4.75C6.69096 4.75 6.31602 4.7658 5.8916 4.81738L5.45215 4.88184C5.05865 4.94939 4.75 5.30917 4.75 5.74121V8.25586C4.75 8.68331 5.05932 9.0518 5.49902 9.125L5.84473 9.17578C6.20043 9.22116 6.58694 9.24902 7 9.24902C7.41188 9.24902 7.94072 9.22049 8.54785 9.11719L8.69043 9.0791C9.01343 8.95924 9.25 8.63609 9.25 8.25781V5.74316C9.25 5.36929 9.01363 5.04051 8.66016 4.91504L8.50098 4.87402C8.05474 4.79935 7.55075 4.75 7 4.75Z" fill="black"/>
<path fill-rule="evenodd" clip-rule="evenodd" d="M16.75 3C17.4047 3 18.0046 3.05923 18.5381 3.14844C19.8044 3.35924 20.75 4.44262 20.75 5.74316V8.25781C20.75 9.50955 19.859 10.6261 18.5928 10.8428C17.872 10.9654 17.242 10.999 16.75 10.999C16.0949 10.999 15.4946 10.9399 14.9609 10.8506C13.6948 10.6397 12.75 9.5563 12.75 8.25586V5.74121C12.75 4.48947 13.641 3.37296 14.9072 3.15625C15.628 3.0336 16.258 3 16.75 3ZM16.75 4.75C16.441 4.75 16.066 4.7658 15.6416 4.81738L15.2021 4.88184C14.8087 4.94939 14.5 5.30917 14.5 5.74121V8.25586C14.5 8.68331 14.8093 9.0518 15.249 9.125L15.5947 9.17578C15.9504 9.22116 16.3369 9.24902 16.75 9.24902C17.1619 9.24902 17.6907 9.22049 18.2979 9.11719L18.4404 9.0791C18.7634 8.95924 19 8.63609 19 8.25781V5.74316C19 5.36929 18.7636 5.04051 18.4102 4.91504L18.251 4.87402C17.8047 4.79935 17.3008 4.75 16.75 4.75Z" fill="black"/>
</svg>

<!-- This Source Code Form is subject to the terms of the Mozilla Public
   - License, v. 2.0. If a copy of the MPL was not distributed with this
   - file, You can obtain one at http://mozilla.org/MPL/2.0/. -->
<svg xmlns="http://www.w3.org/2000/svg" width="24" height="24" fill="none" viewBox="0 0 24 24">
    <path fill="#000" fill-rule="evenodd" d="M7 12.75c.655 0 1.255.06 1.788.148A2.63 2.63 0 0 1 11 15.493v2.515c0 1.252-.891 2.368-2.157 2.585a10.8 10.8 0 0 1-3.632.008A2.63 2.63 0 0 1 3 18.006V15.49c0-1.251.891-2.368 2.157-2.585A11 11 0 0 1 7 12.749m0 1.75a9 9 0 0 0-1.108.067l-.44.065a.87.87 0 0 0-.702.86v2.514c0 .427.31.796.749.869l.346.05a9.1 9.1 0 0 0 2.703-.058l.142-.038a.875.875 0 0 0 .56-.821v-2.515a.88.88 0 0 0-.59-.828l-.159-.041A9 9 0 0 0 7 14.5m9.75-1.75c.655 0 1.255.06 1.788.148a2.63 2.63 0 0 1 2.212 2.595v2.515c0 1.252-.891 2.368-2.157 2.585a10.8 10.8 0 0 1-3.632.008 2.63 2.63 0 0 1-2.211-2.595V15.49c0-1.251.891-2.368 2.157-2.585a11 11 0 0 1 1.843-.156m0 1.75a9 9 0 0 0-1.108.067l-.44.065a.87.87 0 0 0-.702.86v2.514c0 .427.31.796.749.869l.346.05a9.1 9.1 0 0 0 2.703-.058l.142-.038a.875.875 0 0 0 .56-.821v-2.515a.88.88 0 0 0-.59-.828l-.159-.041a9 9 0 0 0-1.501-.124M7 3c.655 0 1.255.06 1.788.148A2.63 2.63 0 0 1 11 5.743v2.515c0 1.252-.891 2.368-2.157 2.585a10.8 10.8 0 0 1-3.632.008A2.63 2.63 0 0 1 3 8.256V5.74c0-1.252.891-2.368 2.157-2.585A11 11 0 0 1 7 3m0 1.75a9 9 0 0 0-1.108.067l-.44.065a.87.87 0 0 0-.702.86v2.514c0 .427.31.796.749.869l.346.05a9.1 9.1 0 0 0 2.703-.058l.142-.038a.875.875 0 0 0 .56-.821V5.743a.88.88 0 0 0-.59-.828l-.159-.041A9 9 0 0 0 7 4.75M16.75 3c.655 0 1.255.06 1.788.148a2.63 2.63 0 0 1 2.212 2.595v2.515c0 1.252-.891 2.368-2.157 2.585a10.8 10.8 0 0 1-3.632.008 2.63 2.63 0 0 1-2.211-2.595V5.74c0-1.252.891-2.368 2.157-2.585A11 11 0 0 1 16.75 3m0 1.75a9 9 0 0 0-1.108.067l-.44.065a.87.87 0 0 0-.702.86v2.514c0 .427.31.796.749.869l.346.05a9.1 9.1 0 0 0 2.703-.058l.142-.038a.875.875 0 0 0 .56-.821V5.743a.88.88 0 0 0-.59-.828l-.159-.041a9 9 0 0 0-1.501-.124" clip-rule="evenodd" />
</svg>
